X:664
T:Vals # 664
S:efter Anders Gustaf Andersson
B:Sörmlands musikarkiv - Olof Anderssons uppteckningar 1936, nr 664
O:Mörkö, Södermanland
R:Vals
M:3/4
L:1/8
Q:180
K:C
g2|:^fg ag fg| e4c2| (Bc) dc BA| GA Bc dB| cd ef g2|(^fg) ag fg|
e4c2| (Bc) dc BA| GA Bc dB|1 c4g2| :|2c4G2|: (G^F) G2e2| (G^F) G2e2| e2{fe}d2c2|
d4c2| (B/c/B/A/) B2g2| (B/c/B/A/) B2g2| a2g2^f2|1 g4 G2:|2 g4 D2|:[K:G] (GB) d3c| [D2B2][D2B2][D2B2]|
GBg3f| [A2e2][A2e2][A2e2]| (de) (fg) fe| [c2e2][c2e2][c2e2]| (3cBc d3c| [D2B2][D2B2]D2|
(GB)d3c| [D2B2][D2B2][D2B2]| GBg3f| [A2e2][A2e2][A2e2]| (de) (fg) fe| c2A2F2| g2 {ga}gf ga g6:|
